icon-themes/sifr_svg/cmd/sc_inserthyperlinkcontrol.svg

<svg viewBox="0 0 16 16" xmlns="http://www.w3.org/2000/svg"><path d="m1 4c-.554 0-1 .446-1 1v1h7v-1c0-.554-.446-1-1-1zm9 0c-.554 0-1 .446-1 1v1h7v-1c0-.554-.446-1-1-1zm-5 3v2h6v-2zm-5 3v1c0 .554.446 1 1 1h5c.554 0 1-.446 1-1v-1zm9 0v1c0 .554.446 1 1 1h5c.554 0 .907422-.45379 1-1v-1z" fill="#555753"/></svg>

<?xml version="1.0" encoding="UTF-8" standalone="no"?>
<svg
   xmlns:dc="http://purl.org/dc/elements/1.1/"
   xmlns:cc="http://creativecommons.org/ns#"
   xmlns:rdf="http://www.w3.org/1999/02/22-rdf-syntax-ns#"
   xmlns:svg="http://www.w3.org/2000/svg"
   xmlns="http://www.w3.org/2000/svg"
   xmlns:sodipodi="http://sodipodi.sourceforge.net/DTD/sodipodi-0.dtd"
   xmlns:inkscape="http://www.inkscape.org/namespaces/inkscape"
   viewBox="0 0 16 16"
   version="1.1"
   id="svg4"
   sodipodi:docname="sc_inserthyperlinkcontrol.svg"
   inkscape:version="0.92.4 (unknown)">
  <metadata
     id="metadata10">
    <rdf:RDF>
      <cc:Work
         rdf:about="">
        <dc:format>image/svg+xml</dc:format>
        <dc:type
           rdf:resource="http://purl.org/dc/dcmitype/StillImage" />
        <dc:title></dc:title>
      </cc:Work>
    </rdf:RDF>
  </metadata>
  <defs
     id="defs8" />
  <sodipodi:namedview
     pagecolor="#ffffff"
     bordercolor="#666666"
     borderopacity="1"
     objecttolerance="10"
     gridtolerance="10"
     guidetolerance="10"
     inkscape:pageopacity="0"
     inkscape:pageshadow="2"
     inkscape:window-width="1366"
     inkscape:window-height="706"
     id="namedview6"
     showgrid="true"
     inkscape:zoom="14.75"
     inkscape:cx="-3.3559322"
     inkscape:cy="8"
     inkscape:window-x="0"
     inkscape:window-y="0"
     inkscape:window-maximized="1"
     inkscape:current-layer="svg4">
    <inkscape:grid
       type="xygrid"
       id="grid817" />
  </sodipodi:namedview>
  <path
     style="fill:#555753"
     d="M 1 4 C 0.446 4 0 4.446 0 5 L 0 6 L 7 6 L 7 5 C 7 4.446 6.554 4 6 4 L 1 4 z M 10 4 C 9.446 4 9 4.446 9 5 L 9 6 L 16 6 L 16 5 C 16 4.446 15.554 4 15 4 L 10 4 z M 5 7 L 5 9 L 11 9 L 11 7 L 5 7 z M 0 10 L 0 11 C 0 11.554 0.446 12 1 12 L 6 12 C 6.554 12 7 11.554 7 11 L 7 10 L 0 10 z M 9 10 L 9 11 C 9 11.554 9.446 12 10 12 L 15 12 C 15.554 12 15.907422 11.54621 16 11 L 16 10 L 9 10 z "
     id="path2" />
</svg>
